!!!Genre:	Gas-nign
!!!Mode:	Minor
!!!Edition:	2015
!!!Listening/dance:	listening
!!!Free rhythm?:	No
!!!Secondary Modes:	All minor
!!!One_Mode:	yes
**kern
*I"P1
*clefG2
*k[b-e-]
*g:
*M2/4
*>A
=1
16gLL
16gJ
8gJ
16ggLL
16gg
16gg
16ggJJ
=2
16ffLL
16ff
16ff
16ffJJ
16ee-LL
16ee-
16ee-
16ee-JJ
=3
8ddL
8cc
8ee-
8ggJ
=4
2cc
=5
16ccLL
16cc
16cc
16ccJJ
16ffLL
16ff
16ff
16ffJJ
=6
16ee-LL
16ee-J
8ee-J
16ddLL
16ddJ
8ddJ
=7
8ccL
8b-J
8ddL
24ccL
24b-
24ccJJ
=8
4.b-
8r
=9:|!
4.b-
16r
*>B
16g
=10||
16gLL
16b-JJ
4dd
8dd
=11
8gg
4dd
16ccLL
16b-JJ
=12
32b-KLL
16.cc
32ddk
16.ccJJ
32ccKLL
16.b-
32b-k
16.gJJ
=13
8ccL
8b-
8b-
8b-J
=14
16gLL
16b-
16dd
16ddJJ
16ddLL
16dd
16dd
16ddJJ
=15
16ddLL
16ggJJ
4dd
(8qdd/
16ccLL)
16b-JJ
=16
16b-LL
16cc
16dd
16ccJJ
16ccLL
16b-
16b-
16gJJ
=17
8b-L
8g
8g
8gJ
=18!|:
*>C
16gLL
16b-
16dd
16ccJJ
16ccLL
16b-
16b-
16gJJ
=19
8ccL
(8qdd/
8b-J)
8b-L
8b-J
=20
16b-LL
16cc
16dd
16ccJJ
16ccLL
16b-
16b-
16gJJ
=21
(16gLL
16b-J)
8gJ
8gL
8gJ
=:|!
*-
